X:1
T:Octavius, LM
T:Octavius, LM
T:Joseph Emerson Sweetser, 1865
T:Public Domain Courtesy of the Cyber Hymnal™
C:Joseph Emerson Sweetser, 1865
Z:Public Domain
Z:Courtesy of the Cyber Hymnal™
%%score ( 1 2 ) ( 3 4 )
L:1/8
Q:1/4=95
M:2/4
K:Bb
V:1 treble 
V:2 treble 
V:3 bass 
V:4 bass 
V:1
 F | B2 (FD) | B,3 F | [Fd]2 (cB) | (B2 A)F | ([ce][Bd]) ([Ac][GB]) | ([FA][GB]) ([Ac][Fd]) | %7
 [Fc]2 [C=E]2 | [CF]3 [EF] | ([DF][CE]) ([B,D][DF]) | B3 [DF] | ([EG][FA]) (Bc) | [FA]3 [EA] | %13
 ([DB][EA]) (Bc) | ([Fd][Ee]) (Gc) | [FB]2 [EA]2 | [DB]3 |] %17
V:2
 F | B2 x2 | B,3 F | x2 F2 | F3 F | x4 | x4 | x4 | x4 | x4 | (DE F) x | x2 G2 | x4 | x2 F2 | %14
 x2 G2 | x4 | x3 |] %17
V:3
 F, | B,2 x2 | B,,3 F, | B,2 ([A,E][B,D]) | (D2 C)F, | (A,B,) (CD) | (ED) ([F,C][B,,B,]) | %7
 [C,A,]2 [C,B,]2 | [F,A,]3 [F,A,] | [B,,B,]2 [B,,F,]2 | F,3 [B,,B,] | [E,B,]2 (B,E) | C3 [C,F,] | %13
 F,2 ([D,F,][F,A,]) | B,2 ([E,B,][C,E]) | [F,D]2 [F,C]2 | [B,,B,]3 |] %17
V:4
 F, | B,2 (F,D,) | B,,3 F, | B,2 x2 | F,3 F, | F,2 F,2 | F,2 x2 | x4 | x4 | x4 | (B,,C, D,) x | %11
 x2 E,2 | (F,E, D,) x | (B,,C,) x2 | (B,G,) x2 | x4 | x3 |] %17

